X:1
T:Title
%%score { ( 1 3 4 ) | ( 2 5 6 ) }
L:1/8
M:4/4
K:Ab
V:1 treble nm="Grand Piano"
V:3 treble 
V:4 treble 
V:2 bass 
V:5 bass 
V:6 bass 
V:1
 z4 z2[Q:1/4=92] [CA]>[DB] | [Ec][Ec][CA][DF] [DF]<[CE][K:bass] [E,A,C][A,CE] | %2
 [CEA]2 [DFA]>[D=EB] [C_EA]2 A>B | ccBA c<e GA | [EGB]2 [=DFB]>[DAc] [EGB]2 B>c | %5
 ddcB c<e [A,EA][A,EG] | %6
 [A,DF]<[A,DF] [A,FA]>[A,DF] [A,DF]<[K:bass][A,CE] [E,A,C][K:treble][A,CE] | %7
[M:35/32] [CEA][A,EA]Bc[Fd]/ [Af]2- [Af]/(3:2:4[DA]3/2-[DA]/4[DAB]3/4-[DAB]/8 | %8
[M:7/8] z2 c3/2-c/4 z/4 z z2 |[M:1/4] (3:2:2e2 e | %10
[M:4/4] (9:8:8e2- [Ee-]2 [Ee-]/ [Ee]3/2A/G/-G3/2A/ | z4 z2 (3:2:2B2 c | %12
 (9:8:8d2- [Gd-]2 [Gd-]/ [Gd]3/2[EG]/[EA]/-[EA]3/2[EB]/ | z4 z2 (3:2:2c2 d | z4 e2- e/4 z/4 z/ z | %15
 (5:4:5[Gd]2 [Gd]/ [Gd]/-[Gd]3/2[Gd]/ z2 (3:2:2c2 B | %16
[M:9/8] z3 z/ A/ A2- A z z/ A/[Q:1/4=91][Q:1/4=89][Q:1/4=88][Q:1/4=86][Q:1/4=85][Q:1/4=83][Q:1/4=82][Q:1/4=81][Q:1/4=79][Q:1/4=78] | %17
[M:7/8] c3/4 z/4 z c3/2-c/4 z/4 z z2[Q:1/4=76][Q:1/4=75][Q:1/4=73][Q:1/4=72][Q:1/4=70] |] %18
V:2
 z4 z2 [A,,E,]>[A,,E,] | [A,,A,][A,,A,][A,,A,][A,,A,] [A,,A,]<[A,,A,] A,,A,, | %2
 A,,2 D,>D, A,,2[K:treble] [A,CE]>[A,DE] | %3
 [A,EA][A,EA][A,DE][K:bass][A,CE] [A,E]<[A,CE] [B,DE][A,CE] | E,2 B,,>B,, E,2 [E,G,E]>[E,A,E] | %5
 [E,B,E][E,B,E][E,A,E][E,G,E] [A,E]<[A,CE] C,C, | D,<D, D,>D, A,,<A,, A,,A,, | %7
[M:35/32] A,,C,[E,G,E][A,_G][D,A,]/ [D,D]2- [D,D]/(3:2:4F,3/2-F,/4=E,3/4-E,/8 | %8
[M:7/8] z/[K:treble] e/-e-e/4 z/4 z/ z[K:bass] z z2 |[M:1/4] z2 | %10
[M:4/4] z4[K:treble] (5:4:5[A,C]2 [CE]/ [B,DE]/-[B,DE]3/2[K:bass][A,DE]/ | %11
 (5:4:5E,2 [E,B,]/ [E,B,]/-[E,B,]3/2[E,B,]/ [E,E]2- [E,E]/4 z/4 z/ z | z2 (3:2:2[E,B,]2 [E,B,] z4 | %13
 (5:4:5[A,,A,]2 A,/ A,/-A,3/2A,/[K:treble] z2 (3:2:2[A,A]2 [A,B,A] | %14
 (5:4:5[A,CA]2 [A,CA]/ [A,CA]/-[A,CA]3/2[A,CA]/ z2 (3:2:2[A,B,E]2 [A,A] | %15
 (5:4:5[E,B,]2 [E,B,]/ [E,B,]/-[E,B,]3/2[E,B,]/ z2 (3:2:2[E,A,E]2 [E,G,E] | %16
[M:9/8] z3 z [A,C]2- [A,C]-[A,C]/4 z/4 z/ z/ =E,/- | %17
[M:7/8] E,/4 z/4[K:treble] e/-e-e/4 z/4 z/ z[K:bass] z z2 |] %18
V:3
 x8 | x6[K:bass] x2 | x8 | x8 | x8 | x8 | x9/2[K:bass] x5/2[K:treble] x |[M:35/32] x35/4 | %8
[M:7/8] [CA]2- [CA]/4 z/4 z/ z/ [DGB]/-[DGB]/4 z/4 z/ z2 |[M:1/4] x2 |[M:4/4] x8 | %11
 (5:4:5[GB-]2 [GB-]/ [GB]/-[GB-]3/2[GB-]/ B2- B/4 z/4 z/ z | x8 | %13
 (5:4:5[Ec-]2 [Ec-]/ [Ec]/-[Ec-]3/2[Ec-]/ c2- c/4 z/4 z/ z | (5:4:5e2 e/ e/-e3/2e/ z2 (3:2:2d2 c | %15
 z4 [Gd]2- [Gd]/4 z/4 z/ z | %16
[M:9/8] (4:3:4c2 c/[Ad]/-[Ad]- [Ad-]/[df-]/4f/4-[e-f]/<e/-e- e-[D-A-e]/<[DA]/-[DA]/[DB]/- | %17
[M:7/8] [C-DA-B]/>[CA]/-[CA]-[CD-G-A]/<[DG]/- [DG] [A,CEA]3 |] %18
V:4
 x8 | x6[K:bass] x2 | x8 | x8 | x8 | x8 | x9/2[K:bass] x5/2[K:treble] x |[M:35/32] x35/4 | %8
[M:7/8] z2 [DG]2 [CEA]3 |[M:1/4] x2 |[M:4/4] x8 | z4 G2- G/4 z/4 z/ z | x8 | z4 E2- E/4 z/4 z/ z | %14
 x8 | x8 |[M:9/8] x9 |[M:7/8] z z z z/ [DGB]/-[DGB]/4 z/4 z/ z2 |] %18
V:5
 x8 | x8 | x6[K:treble] x2 | x3[K:bass] x5 | x8 | x8 | x8 |[M:35/32] x35/4 | %8
[M:7/8] E,2[K:treble] z z/[K:bass] E,/-E,/4 z/4 z/ z2 |[M:1/4] x2 | %10
[M:4/4] z2[K:treble] (3:2:2[A,C]2 [A,C] z4[K:bass] | x8 | %12
 z4 (5:4:5[E,B,]2 [D,B,]/ [C,A,]/-[C,A,]3/2[B,,G,]/ | z4[K:treble] A,2- A,/4 z/4 z/ z | %14
 z4 [A,CA]2- [A,CA]/4 z/4 z/ z | z4 [E,B,]2- [E,B,]/4 z/4 z/ z | %16
[M:9/8] (4:3:4[A,E]2 [_G,A,E]/[F,A,]/-[F,A,]- [F,A,]3/4 z/4 z z z3 | %17
[M:7/8] z2[K:treble] E,2[K:bass] A,,3 |] %18
V:6
 x8 | x8 | x6[K:treble] x2 | x3[K:bass] x5 | x8 | x8 | x8 |[M:35/32] x35/4 | %8
[M:7/8] z2[K:treble] E,2[K:bass] A,,3- |[M:1/4] A,,/4 z/4 z/ z | %10
[M:4/4] x2[K:treble] x28/5[K:bass] x2/5 | x8 | x8 | x4[K:treble] x4 | x8 | x8 | %16
[M:9/8] z3 z/ [D,D]/-[D,D]/4 z/4 z/ z z F,3/2-F,/4 z/4 | %17
[M:7/8] _E,2[K:treble] z z/[K:bass] E,/-E,/4 z/4 z/ z2 |] %18

